X:4
T:Vangelio
O:Greece
M:7/8
K:C
C2DE2FE|D2CE2G,2|C2DE2FE|D2CC2zG,|C2DE2FE|
D2CE2G,2|C2DE2FE|D2CC2z2|EEFA2G2|
EEFA2G2|C2DE2FE|D2CE2z2|E2FA2G2|
E2FA2G2|C2DE2FE|D2CC2G2||
